flaticon/science/fire.svg

<svg xmlns="http://www.w3.org/2000/svg" width="32" height="32" viewBox="0 0 24 24">
    <path d="M 18.851562 10.199219 L 13.769531 1.039062 C 13.410156 0.398438 12.769531 0 12.011719 0 C 11.25 0 10.609375 0.398438 10.25 1.039062 L 5.132812 10.199219 C 2.972656 14.160156 3.769531 19 7.089844 22 L 7.332031 22.199219 C 8.578125 23.335938 10.148438 23.933594 11.734375 23.996094 C 11.800781 23.996094 11.867188 24 11.929688 24 C 11.941406 24 11.949219 24 11.957031 24 C 11.976562 24 11.992188 24 12.011719 24 C 13.691406 24 15.371094 23.398438 16.691406 22.199219 L 16.890625 22 C 20.210938 19 21.050781 14.121094 18.851562 10.199219 Z M 12.609375 22.878906 L 12.410156 23.078125 C 12.375 23.117188 12.335938 23.144531 12.292969 23.167969 C 12.210938 23.179688 12.128906 23.1875 12.046875 23.191406 C 11.964844 23.191406 11.878906 23.1875 11.796875 23.1875 C 11.75 23.148438 11.675781 23.109375 11.570312 23.039062 L 11.410156 22.878906 C 10.292969 21.878906 10.050781 20.28125 10.769531 18.960938 L 11.929688 16.519531 L 13.25 19 C 13.972656 20.28125 13.730469 21.878906 12.609375 22.878906 Z M 14.132812 22.238281 L 14.097656 22.273438 C 14.671875 21.132812 14.679688 19.75 14.011719 18.558594 L 12.609375 15.960938 C 12.492188 15.71875 12.25 15.601562 11.972656 15.601562 C 11.691406 15.601562 11.453125 15.761719 11.332031 16 L 10.089844 18.558594 C 9.347656 19.882812 9.414062 21.445312 10.203125 22.648438 C 10.101562 22.574219 9.996094 22.492188 9.890625 22.398438 L 9.691406 22.238281 C 7.730469 20.480469 7.25 17.640625 8.53125 15.359375 L 11.652344 9.761719 C 11.730469 9.601562 11.890625 9.601562 11.929688 9.601562 C 11.972656 9.601562 12.132812 9.601562 12.171875 9.761719 L 15.292969 15.359375 C 16.570312 17.640625 16.089844 20.480469 14.132812 22.238281 Z M 16.371094 21.398438 L 16.171875 21.601562 C 15.871094 21.871094 15.550781 22.105469 15.214844 22.304688 C 17.003906 20.269531 17.332031 17.378906 16.011719 14.960938 L 12.890625 9.359375 C 12.691406 9 12.332031 8.800781 11.929688 8.800781 C 11.53125 8.800781 11.171875 9 10.929688 9.359375 L 7.8125 14.960938 C 6.558594 17.257812 6.789062 20.003906 8.34375 22 C 8.175781 21.875 8.011719 21.742188 7.851562 21.601562 L 7.652344 21.398438 C 4.570312 18.640625 3.851562 14.199219 5.851562 10.601562 L 10.929688 1.441406 C 11.171875 1.039062 11.570312 0.800781 12.011719 0.800781 C 12.453125 0.800781 12.890625 1.039062 13.089844 1.441406 L 18.171875 10.601562 C 20.171875 14.199219 19.453125 18.640625 16.371094 21.398438 Z M 16.371094 21.398438"/>
</svg>

<svg xmlns="http://www.w3.org/2000/svg" width="32" height="32" viewBox="0 0 24 24">
    <path d="M18.852 10.2L13.77 1.04C13.41.397 12.77 0 12.012 0c-.762 0-1.403.398-1.762 1.04L5.133 10.2C2.973 14.16 3.77 19 7.09 22l.242.2a6.92 6.92 0 0 0 4.402 1.796c.067 0 .133.004.196.004h.082c1.68 0 3.36-.602 4.68-1.8l.199-.2c3.32-3 4.16-7.879 1.96-11.8zm-6.243 12.679l-.199.2a.427.427 0 0 1-.117.089 2.62 2.62 0 0 1-.246.023l-.25-.003c-.047-.04-.121-.079-.227-.149l-.16-.16c-1.117-1-1.36-2.598-.64-3.918l1.16-2.441L13.25 19a3.112 3.112 0 0 1-.64 3.879zm1.524-.64l-.035.034a3.941 3.941 0 0 0-.086-3.714l-1.403-2.598c-.117-.242-.359-.36-.636-.36-.282 0-.52.16-.641.399l-1.242 2.559c-.742 1.324-.676 2.886.113 4.09a4.166 4.166 0 0 1-.312-.25l-.2-.16c-1.96-1.759-2.441-4.598-1.16-6.88l3.121-5.597c.078-.16.239-.16.278-.16.043 0 .203 0 .242.16l3.121 5.597c1.277 2.282.797 5.121-1.16 6.88zm2.238-.84l-.2.203c-.3.27-.62.503-.956.703 1.789-2.035 2.117-4.926.797-7.344L12.89 9.359c-.2-.359-.559-.558-.961-.558-.399 0-.758.199-1 .558l-3.117 5.602c-1.254 2.297-1.024 5.043.53 7.039a7.838 7.838 0 0 1-.491-.398l-.2-.204c-3.082-2.757-3.8-7.199-1.8-10.796l5.078-9.16c.242-.403.64-.641 1.082-.641.441 0 .879.238 1.078.64l5.082 9.16c2 3.598 1.281 8.04-1.8 10.797zm0 0"/>
</svg>
